icons/outline/chat-bubble-left-ellipsis.svg

<svg width="24" height="24" viewBox="0 0 24 24" fill="none" xmlns="http://www.w3.org/2000/svg">
<path d="M8.625 9.75C8.625 9.95711 8.45711 10.125 8.25 10.125C8.04289 10.125 7.875 9.95711 7.875 9.75C7.875 9.54289 8.04289 9.375 8.25 9.375C8.45711 9.375 8.625 9.54289 8.625 9.75ZM8.625 9.75H8.25M12.375 9.75C12.375 9.95711 12.2071 10.125 12 10.125C11.7929 10.125 11.625 9.95711 11.625 9.75C11.625 9.54289 11.7929 9.375 12 9.375C12.2071 9.375 12.375 9.54289 12.375 9.75ZM12.375 9.75H12M16.125 9.75C16.125 9.95711 15.9571 10.125 15.75 10.125C15.5429 10.125 15.375 9.95711 15.375 9.75C15.375 9.54289 15.5429 9.375 15.75 9.375C15.9571 9.375 16.125 9.54289 16.125 9.75ZM16.125 9.75H15.75M2.25 12.7593C2.25 14.3604 3.37341 15.754 4.95746 15.987C6.04357 16.1467 7.14151 16.27 8.25 16.3556V21L12.4335 16.8165C12.6402 16.6098 12.9193 16.4923 13.2116 16.485C15.1872 16.4361 17.1331 16.2678 19.0425 15.9871C20.6266 15.7542 21.75 14.3606 21.75 12.7595V6.74056C21.75 5.13946 20.6266 3.74583 19.0425 3.51293C16.744 3.17501 14.3926 3 12.0003 3C9.60776 3 7.25612 3.17504 4.95747 3.51302C3.37342 3.74593 2.25 5.13956 2.25 6.74064V12.7593Z" stroke="#0F172A" stroke-width="1.5" stroke-linecap="round" stroke-linejoin="round"/>
</svg>

<svg xmlns="http://www.w3.org/2000/svg" fill="none" viewBox="0 0 24 24" stroke-width="1.5" stroke="currentColor" aria-hidden="true">
  <path stroke-linecap="round" stroke-linejoin="round" d="M8.625 9.75a.375.375 0 11-.75 0 .375.375 0 01.75 0zm0 0H8.25m4.125 0a.375.375 0 11-.75 0 .375.375 0 01.75 0zm0 0H12m4.125 0a.375.375 0 11-.75 0 .375.375 0 01.75 0zm0 0h-.375m-13.5 3.01c0 1.6 1.123 2.994 2.707 3.227 1.087.16 2.185.283 3.293.369V21l4.184-4.183a1.14 1.14 0 01.778-.332 48.294 48.294 0 005.83-.498c1.585-.233 2.708-1.626 2.708-3.228V6.741c0-1.602-1.123-2.995-2.707-3.228A48.394 48.394 0 0012 3c-2.392 0-4.744.175-7.043.513C3.373 3.746 2.25 5.14 2.25 6.741v6.018z"/>
</svg>
